X: 1
T: Money In Both Pockets
M: 6/8
L: 1/8
R: jig
K: Dmaj
|:d2F FEF|DFA AFA|d2F FEF|D2f fef|
d2F FEF|DFA AFD|E3 EFA|B3 B2c:|
|:dfa afd|cea ecA|dfa afd|g3 fga|
baf agf|ede fdB|ABA AFA|B3 B3:|
